X:1
T:Partition sans titre
C:Compositeur / Arrangeur
L:1/8
M:7/8
I:linebreak $
K:A
V:1 treble nm="Violon" snm="Vln."
V:1
"A" A2 B Ac ea |"D" f2 a fe cB |"A" A2 B Ae dc |"D" fdf/g/"A" ag ec |"A" A2 B Ac ea | %5
"D" f2 a fe dc | dBc"A" AB cd |1 ecd cB AG :|2 cAB GA ce |:"D" f2 a"A" e2 Ae | BAB c2 ce | %11
"D" dBc"A" Ae dc |"D" fdf/g/"A" ag ec |"D" f2 a"A" e2 Ae | BAB c2 ce |"D" dBc"A" AB cd |1 %16
 cAB GA ce :|2 cAB GA cB |] %18
